images_Kids_svg/res/odb_32_8.svg

<svg viewBox="0 0 32 32" xmlns="http://www.w3.org/2000/svg"><g fill="#555753"><path d="m28-.00195313-8 .00195313c-.54701 0-.433161 0 .537109 1l7.462891 7.4707031c1.17188 1.14517 1 1.0683769 1-.4707031v-7.00195312c-.00006-.55226-.44774-.99994001-1-1.00000001zm-24 .00195313a1.0001 1.0001 0 0 0 -1 1v30a1.0001 1.0001 0 0 0 1 1h24a1.0001 1.0001 0 0 0 1-1v-19a1.0001 1.0001 0 0 0 -.292969-.707031l-11-11.00000025a1.0001 1.0001 0 0 0 -.707031-.29296875zm1 2h11.585938l10.414062 10.414062v17.585938h-22zm11.003906 10c-2.105917 0-4.012069.223842-5.429687.601562-.70881.188863-1.2953239.41258-1.7441409.695313-.4488169.282733-.8222656.669917-.8222656 1.199219v9.140625h.0234375c.0588457.458841.3902985.809048.7988281 1.066406.44882.28273 1.03533.506452 1.7441409.695313 1.41762.37772 3.323767.601562 5.429687.601562 2.10591 0 4.012078-.223843 5.429688-.601562.70881-.18886 1.29533-.412583 1.74414-.695313.435202-.27416.79274-.64939.814454-1.154297h.007812v-.042969-4.49414c.000054-.004165.001946-.007536.001953-.011719h-.001953v-4.503906c0-.529302-.373449-.916486-.822266-1.199219s-1.035331-.506449-1.74414-.695313c-1.417618-.37772-3.323771-.601562-5.429688-.601562zm0 1c2.033918 0 3.876535.223219 5.171875.568359.64767.17257 1.158948.379058 1.46875.574219.309803.195161.355469.331294.355469.353516 0 .02222-.04567.160308-.355469.355468-.309802.195162-.82108.401649-1.46875.574219-1.29534.34514-3.137957.56836-5.171875.56836-2.033917 0-3.876535-.22322-5.171875-.56836-.64767-.17257-1.1589468-.379058-1.4687498-.574219-.3098025-.195159-.3554687-.333246-.3554687-.355468 0-.02222.0456661-.158355.3554687-.353516.3098028-.195161.8210798-.401649 1.4687498-.574219 1.29534-.34514 3.137958-.568359 5.171875-.568359zm-7.003906 2.78125c.4263381.240487.9430915.443166 1.574219.611328 1.417618.377721 3.32377.601563 5.429687.601563s4.01207-.223842 5.429688-.601563c.627547-.167208 1.14127-.368802 1.566406-.607422v3.214844c-.00097.0243-.046996.158432-.353516.351562-.3098.195161-.82108.403602-1.46875.576172-1.29534.34514-3.137965.566407-5.171875.566407-2.03392 0-3.876535-.221267-5.171875-.566407-.64767-.17257-1.1589496-.381011-1.4687496-.576172-.30657-.19313-.3525557-.327232-.3535156-.351562h-.0117188zm0 4.498047c.4266967.241046.9439722.444834 1.576172.613281 1.41762.37772 3.323777.601563 5.429687.601563s4.012078-.223843 5.429688-.601563c.626839-.167017 1.139559-.369178 1.564453-.607422v3.220703h-.001953c-.00097.0243-.046996.158433-.353516.351563-.3098.19516-.82108.403602-1.46875.576172-1.29534.34514-3.137965.566406-5.171875.566406-2.03392 0-3.876535-.221266-5.171875-.566406-.64767-.17257-1.1589496-.381012-1.4687498-.576172-.3065698-.19313-.3525556-.327233-.3535156-.351563h-.0097656z"/><path d="m15.998047 13c-2.03392 0-3.876465.221266-5.171875.566406-.64766.17257-1.1589601.381012-1.4687501.576172-.30658.19313-.3524688.325691-.3554688.337891l.0019531 9.037109c.00548.01217.0508519.146714.3574219.339844.3098.19516.8210799.403602 1.4687499.576172 1.29534.34514 3.137955.566406 5.171875.566406 2.03391 0 3.876535-.221266 5.171875-.566406.64767-.17257 1.15895-.381012 1.46875-.576172.30652-.19313.352546-.327263.353516-.351563h.001953v-9.011718h-.005859c-.00097-.0243-.046996-.158433-.353516-.351563-.30979-.19516-.82109-.403602-1.46875-.576172-1.29535-.34514-3.137965-.566406-5.171875-.566406z" opacity=".35"/></g></svg>

<?xml version="1.0" encoding="UTF-8" standalone="no"?>
<svg
   xmlns:dc="http://purl.org/dc/elements/1.1/"
   xmlns:cc="http://creativecommons.org/ns#"
   xmlns:rdf="http://www.w3.org/1999/02/22-rdf-syntax-ns#"
   xmlns:svg="http://www.w3.org/2000/svg"
   xmlns="http://www.w3.org/2000/svg"
   xmlns:sodipodi="http://sodipodi.sourceforge.net/DTD/sodipodi-0.dtd"
   xmlns:inkscape="http://www.inkscape.org/namespaces/inkscape"
   viewBox="0 0 32 32"
   version="1.1"
   id="svg8"
   sodipodi:docname="odb_32_8.svg"
   inkscape:version="0.92.4 (unknown)">
  <metadata
     id="metadata14">
    <rdf:RDF>
      <cc:Work
         rdf:about="">
        <dc:format>image/svg+xml</dc:format>
        <dc:type
           rdf:resource="http://purl.org/dc/dcmitype/StillImage" />
      </cc:Work>
    </rdf:RDF>
  </metadata>
  <defs
     id="defs12" />
  <sodipodi:namedview
     pagecolor="#ffffff"
     bordercolor="#666666"
     borderopacity="1"
     objecttolerance="10"
     gridtolerance="10"
     guidetolerance="10"
     inkscape:pageopacity="0"
     inkscape:pageshadow="2"
     inkscape:window-width="1366"
     inkscape:window-height="707"
     id="namedview10"
     showgrid="true"
     inkscape:zoom="5.2149125"
     inkscape:cx="0.27118644"
     inkscape:cy="-8.535962"
     inkscape:window-x="0"
     inkscape:window-y="0"
     inkscape:window-maximized="1"
     inkscape:current-layer="g6">
    <inkscape:grid
       type="xygrid"
       id="grid903" />
  </sodipodi:namedview>
  <g
     id="g6"
     style="fill:#555753">
    <g
       transform="matrix(0.05468739,0,0,0.05468739,4.5254371,2.0000008)"
       id="g10"
       style="stroke-width:18.28574944">
      <path
         style="fill:#ddeafb;stroke-width:18.28574944"
         inkscape:connector-curvature="0"
         id="path2-7"
         d="m 419.638,196.528 v 274.389 c 0,22.695 -18.389,41.084 -41.073,41.084 H 41.078 C 21.69,512.001 5.444,498.567 1.127,480.498 L 0.962,457.01 0.004,317.131 V 41.084 C 0.004,18.389 18.393,0 41.078,0 h 182.033 c 16.359,0 69.341,45.173 116.173,92.747 42.732,43.422 80.354,88.843 80.354,103.781 z" />
      <path
         style="fill:#cbe2ff;stroke-width:18.28574944"
         inkscape:connector-curvature="0"
         id="path4"
         d="m 419.638,196.528 v 100.515 c 0,-0.113 -0.01,-0.227 -0.01,-0.35 C 416.537,173.36 316.074,167.653 283.222,134.8 l 56.062,-42.052 c 42.732,43.421 80.354,88.842 80.354,103.78 z" />
      <path
         style="fill:#cbe2ff;stroke-width:18.28574944"
         inkscape:connector-curvature="0"
         id="path6"
         d="M 223.105,0 H 122.59 c 0.113,0 0.227,0.01 0.35,0.01 123.333,3.091 129.04,103.554 161.893,136.406 L 326.885,80.354 C 283.464,37.622 238.043,0 223.105,0 Z" />
      <path
         style="fill:#47cdc6;stroke-width:18.28574944"
         inkscape:connector-curvature="0"
         id="path8"
         d="m 419.638,196.533 v 17.377 c 0,-36.586 -29.668,-66.253 -66.253,-66.253 h -40.324 c -22.684,0 -41.081,-18.397 -41.081,-41.081 V 66.253 C 271.98,29.667 242.312,0 205.727,0 h 17.377 c 31.29,0 61.308,12.433 83.433,34.557 L 385.08,113.1 c 22.125,22.125 34.558,52.143 34.558,83.433 z" />
    </g>
    <g
       id="g925">
      <path
         style="fill:#ff6a66"
         inkscape:connector-curvature="0"
         id="path827"
         d="m 16.003906,12 c -2.105917,0 -4.012069,0.223842 -5.429687,0.601562 -0.70881,0.188863 -1.2953239,0.41258 -1.7441409,0.695313 -0.4488169,0.282733 -0.8222656,0.669917 -0.8222656,1.199219 v 9.140625 H 8.03125 c 0.058846,0.458841 0.3902985,0.809048 0.7988281,1.066406 0.44882,0.28273 1.03533,0.506452 1.7441409,0.695313 C 11.991839,25.776158 13.897986,26 16.003906,26 c 2.10591,0 4.012078,-0.223843 5.429688,-0.601562 0.70881,-0.18886 1.29533,-0.412583 1.74414,-0.695313 0.435202,-0.27416 0.79274,-0.64939 0.814454,-1.154297 H 24 v -0.04297 -4.49414 c 5.4e-5,-0.0042 0.0019,-0.0075 0.002,-0.01172 H 24 V 14.496094 C 24,13.966792 23.626551,13.579608 23.177734,13.296875 22.728917,13.014142 22.142403,12.790426 21.433594,12.601562 20.015976,12.223842 18.109823,12 16.003906,12 Z" />
      <path
         style="fill:#47cdc6"
         inkscape:connector-curvature="0"
         id="path825"
         d="m 16.003906,13 c 2.033918,0 3.876535,0.223219 5.171875,0.568359 0.64767,0.17257 1.158948,0.379058 1.46875,0.574219 C 22.954334,14.337739 23,14.473872 23,14.496094 c 0,0.02222 -0.04567,0.160308 -0.355469,0.355468 -0.309802,0.195162 -0.82108,0.401649 -1.46875,0.574219 -1.29534,0.34514 -3.137957,0.56836 -5.171875,0.56836 -2.033917,0 -3.876535,-0.22322 -5.171875,-0.56836 -0.64767,-0.17257 -1.1589468,-0.379058 -1.4687498,-0.574219 -0.3098025,-0.195159 -0.3554687,-0.333246 -0.3554687,-0.355468 0,-0.02222 0.045666,-0.158355 0.3554687,-0.353516 C 9.673084,13.947417 10.184361,13.740929 10.832031,13.568359 12.127371,13.223219 13.969989,13 16.003906,13 Z" />
      <path
         style="fill:#47cdc6"
         inkscape:connector-curvature="0"
         id="path823"
         d="m 9,15.78125 c 0.4263381,0.240487 0.9430915,0.443166 1.574219,0.611328 1.417618,0.377721 3.32377,0.601563 5.429687,0.601563 2.105917,0 4.01207,-0.223842 5.429688,-0.601563 C 22.061141,16.22537 22.574864,16.023776 23,15.785156 V 19 c -9.7e-4,0.0243 -0.047,0.158432 -0.353516,0.351562 -0.3098,0.195161 -0.82108,0.403602 -1.46875,0.576172 -1.29534,0.34514 -3.137965,0.566407 -5.171875,0.566407 -2.03392,0 -3.876535,-0.221267 -5.171875,-0.566407 C 10.186314,19.755164 9.6750344,19.546723 9.3652344,19.351562 9.0586644,19.158432 9.0126787,19.02433 9.0117188,19 H 9 Z" />
      <path
         style="fill:#47cdc6"
         inkscape:connector-curvature="0"
         id="path2"
         d="m 9,20.279297 c 0.4266967,0.241046 0.9439722,0.444834 1.576172,0.613281 1.41762,0.37772 3.323777,0.601563 5.429687,0.601563 2.10591,0 4.012078,-0.223843 5.429688,-0.601563 C 22.062386,20.725561 22.575106,20.5234 23,20.285156 v 3.220703 h -0.002 c -9.7e-4,0.0243 -0.047,0.158433 -0.353516,0.351563 -0.3098,0.19516 -0.82108,0.403602 -1.46875,0.576172 C 19.880441,24.778734 18.037816,25 16.003906,25 13.969986,25 12.127371,24.778734 10.832031,24.433594 10.184361,24.261024 9.6730814,24.052582 9.3632812,23.857422 9.0567114,23.664292 9.0107256,23.530189 9.0097656,23.505859 H 9 Z" />
    </g>
  </g>
</svg>
